X:1
T:Lady of the Lake  [9]
M:4/4
L:1/8
R:Hornpipe
S:Howe - 1000 Jigs and Reels (c. 1867)
Z:AK/Fiddler's Companion
K:G
BdBG BdBG | cBAG FA A2 | BdBG cBAG | FDEF G2G2 :|
|: d2 dB e3e | c2cA d3d | BdBG cBAG | FDEF G2G2 :|
